X: 41926
T: Wake Of The Barrel, The
R: jig
M: 6/8
K: Gmajor
|B3 ABc|d2 c B2A|G3 GFG|A2 G F2 D|
B3 ABc|d2 c B2A|GFG ABA|G2F G3|
d3 def|g3 fed|B3 Bcd|c2 A B3|
B3 ABc|d2c B2A|G2G ABA|G2 F G3||

